X: 18904
T: Inches To Dublin
R: reel
M: 4/4
K: Bminor
B2fe fB~B2|B2fe fB~B2|dc (3Bcd cBAf|gfef fedc|
Bffe fB~B2|B2fe fB~B2|dc (3Bcd cBAc|1 eAcA Bcdc:|2 eAcA ~B2GB||
|:Fddc dcBA|Fddc dc (3Bcd|cAed cBAB|~B2AB BAGA|
Fd~d2 dcBA|Fddc dcBc|defd efge|1 faec B3A:|2 faec Bcdc||

